X:1
T:Title
%%score 1 2 3
L:1/8
M:3/2
K:C
V:1 treble nm="Part_1"
V:2 treble-8 nm="Part_2"
V:3 treble-8 nm="Part_3"
V:1
 G8 G4 | A4 B6 A2 | c6 B2 B4 | A4 c2 B2 G4 | A4 B6 G2 | G6 F2 E4 | F2 E4 C2 D4 | E2 D2 C4 B,2 A,2 | %8
 C12 | z4 z4 G4 | A4 B6 A2 | c6 B2 B4- | B2 A2 c2 B2 G4 | A4 A4 G4 | F2 E2 F2 D2 F4- | %15
 F2 G2 A6 B2 | c2 B2 G2 A2 F4 | G12 || G8 B2 c2 | d6 c2 c2 B2 | d4 B2 G2 A4 | G4 z4 z4 | c4 B4 A4 | %23
 c2 B2 G2 A2 F2 E2 | G8 E4 | D4 G6 E2 | F2 E2 D2 C4 B,2 | D12 | z12 | D4 E4 F4 | G6 E2 F2 G2 | %31
 A4 A4 G4 | F2 E2 F2 D2 F4- | F2 G2 A6 B2 | c2 _B2 G2 A2 F4 | G12 |] %36
V:2
 G8 B2 c2 | d4 e6 d2 | c4 f2 e4 d2 | e4 c2 d4 B2 | A4 d6 c2 | e2 c4 B2 c4 | A2 c4 A2 A4 | %7
 B4 G2 E2 F4 | G8 c4 | B2 d4 B2 B4 | d4 e4 d4 | f6 e2 e4 | d2 c4 B2 c4 | d8 c2 B2 | %14
 c4 A2 B2 c2 B2 | c2 e4 d2 e4 | e2 d4 e2 c4 | d12 || d8 e4 | f4 e4 e2 d2- | d2 B4 c2 d4 | %21
 c2 d4 c2 B4 | e6 d2 c2 d2 | e4 d2 e2 c4 | d4 c6 A2 | B8 B4 | c4 A2 F2 G4 | A4 B6 A2 | d4 B4 A4 | %29
 B8 c4 | d6 c4 d2 | e6 c2 d4 | c4 A2 B2 c2 B2 | c2 e4 d2 e4 | e2 d4 e2 c4 | d12 |] %36
V:3
 G8 G4 | D4 G6 F2 | A6 G2 G4 | c2 A4 G2 B4 | c4 G6 E2 | E8 C4 | D2 C2 E2 F4 EF | G4 E2 C2 D4 | %8
 C8 E2 F2 | G8 G4 | D4 G6 F2 | A6 G2 G4 | F2 A4 G2 E4 | D4 F4 E4 | A6 G2 F2 G2 | A6 B2 c2 G2 | %16
 A2 B4 c2 A4 | G12 || G8 E4 | D4 A6 G2 | G8 F4 | G4 B2 c2 d4 | A4 G4 A4- | A2 G2 B2 c2 A4 | G4 C8 | %25
 G4 E4 G4 | A2 F4 D2 E4 | D4 z4 z4 | D4 E4 F4 | G8 A4 | G2 B4 c2 A2 B2 | c6 A2 _B4 | A6 G2 F2 G2 | %33
 A6 B2 c2 G2 | A2 _B4 c2 A4 | G12 |] %36

